X: 20253
T: Joe McGann's Fiddle
R: hornpipe
M: 4/4
K: Dmajor
|ABde fedc|BdgB A2dc|BdgB Adfa|gfed cea2|
ABde fedc|BdgB A2dc|Bege fafd|e2d2 d3f|
ABde fedc|BdgB A2dc|BdgB Adfa|gfed cea2|
ABde fedc|BdgB A2dc|Bege fafd|e2d2 d2fg|
adfa gdBd|gBdg fdAd|gdBg fdAf|ed B/ c/ d eA e/ f/ g|
adfa gdBd|gBdg fdAd|Bege fafd|e2d2 d2 e/ f/ g|
adfa gdBd|gBdg fdAd|gdBg fdAf|edB/c/ d eA e/ f/ g|
adfa gdBd|gBdg fdAd|Bege fafd|e2d2 d4
Adfd Aege|fdaf ecac|BdgB Adfa|gfed cea2|
Adfd Aege|fdaf ecac|Bege fafd|e2d2 d3A|
Adfd Aege|fdaf ecac|BdgB Adfa|gfed cea2|
Adfd Aege|fdaf ecac|Bege fafd|e2d2
d2e/f/g|
fgag fedc|BdBg fdAd|BdgB Adfa|gfed cea2|
fgag fedc|BdBg fdAd|Bege fafd|e2d2 d2fg|
fgag fedc|BdBg fdAd|BdgB Adfa|gfed cea2|
fgag fedc|BdBg fdAd|Bege fafd|e2d2 d3f|

